static/icons/shogi.svg

<svg height="50" viewBox="0 0 13.229166 13.229167" width="50" xmlns="http://www.w3.org/2000/svg"><path d="m25 1.7617188-15.7265625 5.4960937-4.3085937 40.9804685h40.0703122l-4.308594-40.9804685zm-11.134766 14.9257812h22.388672v2.371094h-9.9375v6.677734h8.501953v2.046875h-8.501953v7.539063h11.494141v2.371093h-25.621094v-2.371093h11.373047v-7.539063h-8.5v-2.046875h8.5v-6.677734h-9.697266z" fill="#3771c8" transform="scale(.26458333)"/></svg>

<?xml version="1.0" encoding="UTF-8" standalone="no"?>
<!-- Created with Inkscape (http://www.inkscape.org/) -->

<svg
   xmlns:dc="http://purl.org/dc/elements/1.1/"
   xmlns:cc="http://creativecommons.org/ns#"
   xmlns:rdf="http://www.w3.org/1999/02/22-rdf-syntax-ns#"
   xmlns:svg="http://www.w3.org/2000/svg"
   xmlns="http://www.w3.org/2000/svg"
   xmlns:sodipodi="http://sodipodi.sourceforge.net/DTD/sodipodi-0.dtd"
   xmlns:inkscape="http://www.inkscape.org/namespaces/inkscape"
   width="50"
   height="50"
   viewBox="0 0 13.229166 13.229167"
   version="1.1"
   id="svg1579"
   inkscape:version="0.92.4 (5da689c313, 2019-01-14)"
   sodipodi:docname="ShogiKing.svg">
  <defs
     id="defs1573">
    <inkscape:path-effect
       effect="mirror_symmetry"
       start_point="-15.691712,-45.362002"
       end_point="-15.691712,4.437998"
       center_point="-15.691712,-20.462002"
       id="path-effect7365"
       is_visible="true"
       mode="free"
       discard_orig_path="false"
       fuse_paths="true"
       oposite_fuse="false" />
  </defs>
  <sodipodi:namedview
     id="base"
     pagecolor="#ffffff"
     bordercolor="#666666"
     borderopacity="1.0"
     inkscape:pageopacity="0.0"
     inkscape:pageshadow="2"
     inkscape:zoom="7.9195959"
     inkscape:cx="13.576476"
     inkscape:cy="38.142259"
     inkscape:document-units="px"
     inkscape:current-layer="layer1"
     showgrid="false"
     units="px"
     showguides="true"
     inkscape:window-width="1920"
     inkscape:window-height="1017"
     inkscape:window-x="-8"
     inkscape:window-y="-8"
     inkscape:window-maximized="1" />
  <metadata
     id="metadata1576">
    <rdf:RDF>
      <cc:Work
         rdf:about="">
        <dc:format>image/svg+xml</dc:format>
        <dc:type
           rdf:resource="http://purl.org/dc/dcmitype/StillImage" />
        <dc:title />
      </cc:Work>
    </rdf:RDF>
  </metadata>
  <g
     inkscape:label="Layer 1"
     inkscape:groupmode="layer"
     id="layer1"
     transform="translate(0,-283.77082)">
    <path
       style="fill:#3771c8;fill-opacity:1;fill-rule:nonzero;stroke:none;stroke-width:0.93406713;stroke-opacity:0.48743723"
       d="M 25 1.7617188 L 9.2734375 7.2578125 L 4.9648438 48.238281 L 45.035156 48.238281 L 40.726562 7.2578125 L 25 1.7617188 z M 13.865234 16.6875 L 36.253906 16.6875 L 36.253906 19.058594 L 26.316406 19.058594 L 26.316406 25.736328 L 34.818359 25.736328 L 34.818359 27.783203 L 26.316406 27.783203 L 26.316406 35.322266 L 37.810547 35.322266 L 37.810547 37.693359 L 12.189453 37.693359 L 12.189453 35.322266 L 23.5625 35.322266 L 23.5625 27.783203 L 15.0625 27.783203 L 15.0625 25.736328 L 23.5625 25.736328 L 23.5625 19.058594 L 13.865234 19.058594 L 13.865234 16.6875 z "
       id="path3112"
       transform="matrix(0.26458333,0,0,0.26458333,0,283.77082)" />
  </g>
</svg>
